icon-svg/doube-window-b-open.svg

<svg xmlns="http://www.w3.org/2000/svg" fill="#44739e" viewBox="0 0 24 24"><path d="M7.17 6.785 2 5.6v12.8l5.17-1.537Zm-.443 9.751-.032.009-4.252 1.265V6.153l.054.013 4.23.971zM16.83 6.785v10.082L22 18.4V5.6Zm4.727 11.025-.057-.018-4.227-1.256v-9.4l.035-.008 4.249-.976ZM6.638 7.208l-.359-.082v9.451l.359-.107Zm5.655 9.739V6.684h4.581l.827-.191v-.341H6.279v.337l.847.195h4.561v10.263H7.21l-.931.277v.255h11.422v-.261l-.91-.271zm5.408-9.817-.339.078v9.262l.339.101z"/></svg>

<?xml version="1.0" encoding="UTF-8"?>
<svg width="24px" fill="#44739e" height="24px" viewBox="0 0 24 24" version="1.1" xmlns="http://www.w3.org/2000/svg" xmlns:xlink="http://www.w3.org/1999/xlink">
            <path d="M 7.17,6.785 2,5.6 V 18.4 L 7.17,16.863 Z M 6.727,16.536 6.695,16.545 2.443,17.81 V 6.153 l 0.054,0.013 4.23,0.971 z M 16.83,6.785 V 16.867 L 22,18.4 V 5.6 Z M 21.557,17.81 21.5,17.792 17.273,16.536 v -9.4 L 17.308,7.128 21.557,6.152 Z M 6.638,7.208 6.279,7.126 v 9.451 L 6.638,16.47 Z m 5.655,9.739 V 6.684 h 4.581 L 17.701,6.493 V 6.152 H 6.279 v 0.337 l 0.847,0.195 h 4.561 V 16.947 H 7.21 l -0.931,0.277 v 0.255 h 11.422 v -0.261 l -0.91,-0.271 z M 17.701,7.13 17.362,7.208 v 9.262 l 0.339,0.101 z"/>

</svg>
